svgs/sharp-regular/tally-2.svg

<svg xmlns="http://www.w3.org/2000/svg" viewBox="0 0 640 512"><!--! Font Awesome Pro 6.6.0 by @fontawesome - https://fontawesome.com License - https://fontawesome.com/license (Commercial License) Copyright 2024 Fonticons, Inc. --><path d="M152 64l0-24-48 0 0 24 0 384 0 24 48 0 0-24 0-384zm128 0l0-24-48 0 0 24 0 384 0 24 48 0 0-24 0-384z"/></svg>

<svg xmlns="http://www.w3.org/2000/svg" viewBox="0 0 640 512"><!--! Font Awesome Pro 6.4.2 by @fontawesome - https://fontawesome.com License - https://fontawesome.com/license (Commercial License) Copyright 2023 Fonticons, Inc. --><path d="M152 64V40H104V64 448v24h48V448 64zm128 0V40H232V64 448v24h48V448 64z"/></svg>
